static/img/index/partners/packt_color_dark.svg

<svg width="276" height="89" fill="none" xmlns="http://www.w3.org/2000/svg"><path fill-rule="evenodd" clip-rule="evenodd" d="M.75.56C.337.985 0 17.458 0 37.167V73h12V45h10.962c12.839 0 19.788-2.037 24.719-7.248 4.664-4.926 5.653-7.597 5.647-15.248-.006-7.695-1.395-11.337-5.989-15.701C41.867 1.605 38 .708 19 .228 9.375-.014 1.163.135.75.56ZM159 36.5V73h11V0h-11v36.5ZM218 8v15h-10v10h10v40h11V33h10V23h-10V8h-11ZM37.102 14.284c3.024 2.032 3.431 2.846 3.696 7.388 0 4.145.118 5.687-2.161 7.966-1.535 1.535-2.663 2.868-14.548 3.196L12 33.167V12h10.852c9.643 0 11.231.254 14.25 2.284Zm31.126 9.833C56.555 29.925 50.886 44.922 55.461 57.89 60.95 73.448 80.252 79.688 91.75 69.621l2.25-1.97V73h11V23H94s.111.175-.184 2.519l-.316 2.519-3.838-2.741c-5.267-3.763-15.15-4.307-21.434-1.18Zm56.171.426c-9.931 5.155-15.067 14.542-14.158 25.874 1.156 14.394 10.849 23.567 25.291 23.931 6.05.152 12.757-1.981 16.718-5.318 2.376-2.002 2.99-2.53 2.99-2.53l-7.3-7.598-2.499 1.966c-3.337 2.625-9.286 3.52-14.342 2.159-4.534-1.221-8.379-5.92-9.569-11.693-1.004-4.873.296-11.168 5.14-15.06 2.932-2.356 5.298-3.165 9.057-3.274 3.562-.104 6.274.526 8.792 2.447l3.208 2.446 3.136-3.543c1.725-1.948 3.137-3.917 3.137-4.374 0-1.238-5.03-4.961-8.872-6.567-5.59-2.336-15.041-1.819-20.729 1.134Zm57.293 10.024C171.285 46.763 170.514 47.5 170.514 47.5s10.099 11.519 13.904 16.48l6.919 9.02h13.855l-3.346-4.391c-1.84-2.415-6.4-8.293-10.132-13.063l-6.786-8.671 2.664-3.188C189.057 41.934 205 23 205 23s3.009-.007-5 .037l-8.5.037-9.808 11.493ZM241.708 23 262 46.898s-4.109 5.863-9.131 12.157a23948.87 23948.87 0 0 0-10.123 12.695c-.773.976-.981 1.25-.981 1.25h14.159l9.038-11.669A388.395 388.395 0 0 0 275.5 47.073s-3.326-4.689-6.75-8.631a798.99 798.99 0 0 1-9.157-10.742l-3.908-4.7h-13.977ZM86.953 34.476c2.449 1.344 3.848 3.084 5.064 5.051 1.836 2.972 2.14 4.661 1.8 10.007-.345 5.413-.755 6.455-3.278 9.426-3.622 4.265-8.449 5.4-13.594 4.531C64.443 61.379 60.81 44.228 71.04 35.62c2.446-2.058 4.772-2.437 8.086-2.62 3.106-.172 5.1-.02 7.827 1.476ZM0 81.5V89h274v-8H137.667C62.683 81 0 81.5 0 81.5Z" fill="#fff"/></svg>

<svg width="276" height="89" viewBox="0 0 276 89" fill="none" xmlns="http://www.w3.org/2000/svg">
<path fill-rule="evenodd" clip-rule="evenodd" d="M0.75 0.56C0.337 0.985 0 17.458 0 37.167V73H6H12V59V45H22.962C35.801 45 42.75 42.963 47.681 37.752C52.345 32.826 53.334 30.155 53.328 22.504C53.322 14.809 51.933 11.167 47.339 6.803C41.867 1.605 38 0.708 19 0.228C9.375 -0.014 1.163 0.135 0.75 0.56ZM159 36.5V73H164.5H170V36.5V0H164.5H159V36.5ZM218 8C218 8 218 12.408 218 16.167V23H213H208V28V33H213H218V53V73H223.5H229V53V33H234H239V28V23H234H229V15.5V8H224.167C221.508 8 218 8 218 8ZM37.102 14.284C40.126 16.316 40.533 17.13 40.798 21.672C40.798 25.8174 40.9163 27.3587 38.637 29.638C37.102 31.173 35.974 32.506 24.089 32.834L12 33.167V22.584V12H22.852C32.495 12 34.083 12.254 37.102 14.284ZM68.228 24.117C56.555 29.925 50.886 44.922 55.461 57.89C60.95 73.448 80.252 79.688 91.75 69.621L94 67.651V70.326C94 72.901 94 73 94 73H105V48V23H94C94 23 94.111 23.175 93.816 25.519L93.5 28.038L89.662 25.297C84.395 21.534 74.512 20.99 68.228 24.117ZM124.399 24.543C114.468 29.698 109.332 39.085 110.241 50.417C111.397 64.811 121.09 73.984 135.532 74.348C141.582 74.5 148.289 72.367 152.25 69.03C154.626 67.028 155.24 66.5 155.24 66.5L147.94 58.902L145.441 60.868C142.104 63.493 136.155 64.388 131.099 63.027C126.565 61.806 122.72 57.107 121.53 51.334C120.526 46.461 121.826 40.1665 126.67 36.274C129.602 33.9183 131.968 33.1095 135.727 33C139.289 32.8962 142.001 33.526 144.519 35.447L147.727 37.893L150.863 34.35C152.588 32.402 154 30.433 154 29.976C154 28.738 148.97 25.015 145.128 23.409C139.538 21.073 130.087 21.59 124.399 24.543ZM181.692 34.567C171.285 46.763 170.514 47.5 170.514 47.5C170.514 47.5 180.613 59.019 184.418 63.98L191.337 73H198.264H205.192L201.846 68.609C200.006 66.194 195.446 60.316 191.714 55.546L184.928 46.875L187.592 43.687C189.057 41.934 205 23 205 23C205 23 208.009 22.993 200 23.037L191.5 23.074L181.692 34.567ZM241.708 23L262 46.898C262 46.898 257.891 52.761 252.869 59.055C247.847 65.35 243.292 71.063 242.746 71.75C241.973 72.726 241.765 73 241.765 73H255.924L264.962 61.331C271.012 53.52 275.5 47.073 275.5 47.073C275.5 47.073 272.174 42.384 268.75 38.442C265.863 35.119 261.742 30.285 259.593 27.7L255.685 23H241.708ZM86.953 34.476C89.4018 35.8196 90.801 37.56 92.017 39.527C93.853 42.499 94.157 44.188 93.817 49.534C93.472 54.947 93.0619 55.9894 90.539 58.96C86.9166 63.2253 82.09 64.36 76.945 63.491C64.443 61.379 60.81 44.228 71.04 35.62C73.486 33.562 75.8116 33.1831 79.126 33C82.2318 32.8284 84.226 32.9798 86.953 34.476ZM0 81.5C0 81.5 0 83.833 0 85.667V89H137H274V85V81H137.667C62.683 81 0 81.5 0 81.5Z" fill="#ffffff"/>
</svg>
